X: 13616
T: Foggy Dew, The
R: waltz
M: 3/4
K: Gmajor
(EF)|:G2 GA B2 g>f|e2 dB A2 G>A|B>AB>G E>GFA|G2 GF G2:|
ef|:(g2 g)f e2 f>g|a>g f>e d2 Bd|e2 e>f g>fe>d|1 e3d e2 ef:|2 e3d e2 EF||

